www/assets/icons/domain_add.svg

<svg xmlns="http://www.w3.org/2000/svg" width="24" height="24" viewBox="0 0 24 24" fill='currentColor'><path d="M11 6V2H1v18h14v-2h-4v-2h2v-2h-2v-2h2v-2h-2V8h8v6h2V6zM5 18H3v-2h2zm0-4H3v-2h2zm0-4H3V8h2zm0-4H3V4h2zm4 12H7v-2h2zm0-4H7v-2h2zm0-4H7V8h2zm0-4H7V4h2zm14 12v2h-2v2h-2v-2h-2v-2h2v-2h2v2zm-6-8h-2v2h2zm0 4h-2v2h2z"/></svg>

<svg width="24" height="24" viewBox="0 0 24 24" xmlns="http://www.w3.org/2000/svg" fill='currentColor'><path d="M11 6V2H1V20H15V18H11V16H13V14H11V12H13V10H11V8H19V14H21V6H11ZM5 18H3V16H5V18ZM5 14H3V12H5V14ZM5 10H3V8H5V10ZM5 6H3V4H5V6ZM9 18H7V16H9V18ZM9 14H7V12H9V14ZM9 10H7V8H9V10ZM9 6H7V4H9V6ZM23 18V20H21V22H19V20H17V18H19V16H21V18H23ZM17 10H15V12H17V10ZM17 14H15V16H17V14Z"/></svg>
